src/assets/duotone/MusicPlay.svg

<svg width="24" height="24" viewBox="0 0 24 24"  xmlns="http://www.w3.org/2000/svg">
<path d="M13.1802 11.8596C12.7802 11.8596 12.4202 11.6397 12.2502 11.2797L10.8002 8.38964L10.3802 9.16961C10.1502 9.59961 9.69023 9.86962 9.20023 9.86962H8.47021C8.06021 9.86962 7.72021 9.52962 7.72021 9.11962C7.72021 8.70962 8.06021 8.36962 8.47021 8.36962H9.1102L9.90021 6.9096C10.0902 6.5696 10.4702 6.33961 10.8302 6.35961C11.2202 6.35961 11.5702 6.58961 11.7502 6.92961L13.1802 9.7896L13.5202 9.0996C13.7502 8.6396 14.2002 8.35961 14.7202 8.35961H15.5302C15.9402 8.35961 16.2802 8.69961 16.2802 9.10961C16.2802 9.51961 15.9402 9.85961 15.5302 9.85961H14.8202L14.1102 11.2696C13.9302 11.6396 13.5802 11.8596 13.1802 11.8596Z" />
<path opacity="0.4" d="M2.74982 18.6498C2.33982 18.6498 1.99982 18.3098 1.99982 17.8998V12.1998C1.94982 9.48983 2.95981 6.92983 4.83981 5.00983C6.71981 3.09983 9.23983 2.0498 11.9498 2.0498C17.4898 2.0498 21.9998 6.55979 21.9998 12.0998V17.7998C21.9998 18.2098 21.6598 18.5498 21.2498 18.5498C20.8398 18.5498 20.4998 18.2098 20.4998 17.7998V12.0998C20.4998 7.38979 16.6698 3.5498 11.9498 3.5498C9.63983 3.5498 7.49982 4.43981 5.90982 6.05981C4.30982 7.68981 3.45982 9.85981 3.49982 12.1798V17.8898C3.49982 18.3098 3.16982 18.6498 2.74982 18.6498Z" />
<path d="M5.94 12.4502H5.81C3.71 12.4502 2 14.1602 2 16.2602V18.1402C2 20.2402 3.71 21.9502 5.81 21.9502H5.94C8.04 21.9502 9.75 20.2402 9.75 18.1402V16.2602C9.75 14.1602 8.04 12.4502 5.94 12.4502Z" />
<path d="M18.19 12.4502H18.06C15.96 12.4502 14.25 14.1602 14.25 16.2602V18.1402C14.25 20.2402 15.96 21.9502 18.06 21.9502H18.19C20.29 21.9502 22 20.2402 22 18.1402V16.2602C22 14.1602 20.29 12.4502 18.19 12.4502Z" />
</svg>

<?xml version="1.0" encoding="UTF-8"?>
<svg width="24" height="24" viewBox="0 0 24 24" xmlns="http://www.w3.org/2000/svg">
 <path d="m13.18 11.86c-0.4 0-0.76-0.2199-0.93-0.5799l-1.45-2.8901-0.42 0.77997c-0.23 0.43-0.68997 0.70001-1.18 0.70001h-0.73002c-0.41 0-0.75-0.34-0.75-0.75s0.34-0.75 0.75-0.75h0.63999l0.79001-1.46c0.18999-0.34 0.56999-0.56999 0.92999-0.54999 0.39 0 0.74 0.23 0.92 0.57l1.43 2.86 0.34-0.69c0.23-0.46 0.68-0.73999 1.2-0.73999h0.81c0.41 0 0.75 0.34 0.75 0.75s-0.34 0.75-0.75 0.75h-0.71l-0.71 1.41c-0.18 0.37-0.53 0.59-0.93 0.59z"/>
 <path d="m2.7498 18.65c-0.41 0-0.75-0.34-0.75-0.75v-5.7c-0.05-2.71 0.95999-5.27 2.84-7.19 1.88-1.91 4.4-2.96 7.11-2.96 5.54 0 10.05 4.51 10.05 10.05v5.7c0 0.41-0.34 0.75-0.75 0.75s-0.75-0.34-0.75-0.75v-5.7c0-4.71-3.83-8.55-8.55-8.55-2.31 0-4.45 0.89001-6.04 2.51-1.6 1.63-2.45 3.8-2.41 6.12v5.71c0 0.42-0.33 0.76-0.75 0.76z" opacity=".4"/>
 <path d="m5.94 12.45h-0.13c-2.1 0-3.81 1.71-3.81 3.81v1.88c0 2.1 1.71 3.81 3.81 3.81h0.13c2.1 0 3.81-1.71 3.81-3.81v-1.88c0-2.1-1.71-3.81-3.81-3.81z"/>
 <path d="m18.19 12.45h-0.13c-2.1 0-3.81 1.71-3.81 3.81v1.88c0 2.1 1.71 3.81 3.81 3.81h0.13c2.1 0 3.81-1.71 3.81-3.81v-1.88c0-2.1-1.71-3.81-3.81-3.81z"/>
</svg>
